X:1
T:Highland Lassie
C:Jim Johnstone
H:was Anon050
S:John Macfarlane, March 2004
O:October 2003
M:4/4
L:1/4
R:Reel
K:G
G G G A/B/ | G G G A/B/ | c>B A G | F/G/A/F/ D E/F/ |
 G G G A/B/ | G G G A/B/ | c/B/c/d/ e/d/e/f/ | g3 |]
